X:17
T:11b. Look Right
R:double jig
C:LarryMallette
M:6/8
L:1/8
Q:280
K:G
"Double Jig"
~e3 dcA|c2e dcA|~G3 EGB|AGA Bcd|
~e3 dcA|~G3 edB|e2a ged|1cAG AB/c/d:|2cAG A3||
edBe2e|ge/f/g a2a|aba ged|ege dBG|
~e3 dcA|~G3 edB|~e2a ged|cAGA3:|





